X: 1202
T: Red Haired Boy
B: ralph
B: steve tunes
M:4/4
R: reel
Q: 1/4=100
K:AMix
V:1 
GF| "A"E2A2 ABcd| efec "D"d2cd| "A"edcB ABce| "G"BGEF G2GF|
    "A"E2AG ABcd| efec "D"dBcd| "A"ea2b "E7"aged| "A"c2A2 A2 :|
|:\
ef| "G"g2ef g2ef| gfec "D"d2cd| "A"edcB ABce| "G"BGEF G2GF|
    "A"E2AG ABcd| efec "D"dBcd| "A"ea2b "E7"aged| "A"c2A2 A2 :|
% abcbook-tune_id 63454da3ef06af44d438779c


% abcbook-boost 0
% abcbook-tablature 
% abcbook-transpose 
% abcbook-lastupdated 1666002832325
% abcbook-soundfonts 
% abcbook-repeats 3
%%text 9/1/98.  Also known as "The Little Beggerman" and "The Red Headed Irishman".
% Rhythm Reel
% Titles One title
% Transcriptions Only 1 transcription
% Movement Has lots of stepwise movement
% Movement Has some stepwise movement
% Mode major
% Key D
% Time_signature 2/2
% Has_accompaniment_chords Has chords

